X:22
T:Polska e. Pers Erik (Rattvik)
R:polska J
Z:2000 Brian Wilson 
M:3/4
L:1/8
K:A
|: "A"EE A2 c2 | "E"BA/G/ "A"AA E2 | "A"A>A ce a>g | "D"fe/^d/ "E"e4 :|
P:B
|: "D"ab/a/ gd d>e | "D"fe/d/ "A"ec c>B
| "A"AB/c/ "D"df/d/ "A"ce/c/ | "E"BA/G/ "A"Ac "E"e2
|  "D"ab/a/ gd d>e | "D"fe/d/ "A"ec c>B
| "A"AB/c/ "D"df/e/ d/c/B/A/ | "E"G/A/B/G/ "A"A4 :|
